X:1
T:Amour se doibt
T:Jean Maillart
T:Source : Livre IV de 24 chansons nouvelles à 4 parties---Paris---N.du Chemin---1549. Editor : André Vierendeels (27/02/18). Notes : Original clefs : C1, C3, C4, F4 Original note values have been halved Original note values have been quartered in 3-beat measures Dotted brackets indicate black notes Editorial accidentals above the stave
T:Amour se doibt
T:©
T:©
T:©
C:Jean Maillart
Z:©
%%score [ 1 [ 2 3 ] 4 ]
L:1/8
Q:1/4=120
M:2/2
K:F
V:1 treble nm="Alto" snm="A"
V:2 treble-8 nm="Tenor 1" snm="T 1"
V:3 treble-8 nm="Tenor 2" snm="T 2"
V:4 bass nm="Bass" snm="B"
V:1
 D8 | E4 F2 G2- | G2 FE F4 | A4 B2 B2 | A2 B4 AG | F4 z2 F2 | F2 F2 EDEF | G2 G2 B2 B2 | %8
w: A-|mour se doibt|_ _ _ fi-|gu- rer u-|ne ro- * *|se, dont|pour un temps _ _ _|_ l'o- deur on|
w: Mais|a- my- tié|_ _ _ _|est trop gran-|de cho- * *|se, qui|bien au vray _ _ _|_ la veult con-|
 AGAB c3 B |"^#" AG G4 F2 |[M:2/4] G4 :|[M:2/2] z2 D2 F4 | E4 D2 D2 | FEFG A2 B2 | A2 c4 B2- | %15
w: peult _ _ _ _ _|_ _ _ ti-|rer,|car a-|mour n'est qu'un|de- * * * * sir|d'as- pi- *|
w: si- * * * * *|* * * de-|rer:|||||
 B2 A2 B4 | G4 G2 G2 | F4 D4 | F2 F2 E2 D2- |[M:2/4]"^#" D2 C2 |[M:3/4] D4 F2 | G2 G4 | F4 F2 | %23
w: * * rer,-|rer à quel-|que fin,|pour un con- ten-|* te-|ment: mais|d'a- my-|tié l'on|
w: ||||||||
 A4 B2 | A4 G2 |[M:2/2] F4 F4 | B4 G4 | c3 B AG F2- | F2 G2 A2 G2 | G2 F2 G4 | z2 F2 G2 G2- | %31
w: en peult|re- ti-|rer, plai-|sir, prouf-|fit, _ _ _ _|_ hon- neur, ad-|van- ce- ment,|mais d'a- my-|
w: ||||||||
 G2 F4 F2 | A4 B2 A2- | A2 G2 F4 | F4 B4 | G4 c3 B | AG F4 G2 | A2 G2 G2 F2 | G8 |] %39
w: * tié l'on|peult re- ti-||rer, plai-|sir, prouf- *|* * fit, hon-|neur, ad- van- ce-|ment.|
w: ||||||||
V:2
 B8 | c4 d4- | d4 d2 d2 |"^b" f2 f2 Bcde | f2 d4 c2 | d4 z2 d2 | d2 d2 c2 c2 |"^b" d2 d2 Bcde | %8
w: A-|mour se|_ doibt fi-|gu- rer u- * * *|ne ro- *|se, dont|pour un temps l'o-|deur on peult _ _ _|
w: Mais|a- my-|* tié est|trop plus gran- * * *|de cho- *|se, qui|bien au vray la|veult con- si- * * *|
 f6 e2- | e2 c2 d4 |[M:2/4] d4 :|[M:2/2] z2 B2 A2 F2 | c4 F4 | z2 d2 c2 f2- |"^b" fe f2 d2 e2 | %15
w: _ _|* * ti-|rer,|car a- *|mour n'est|qu'un de- sir|_ _ _ d'as- pi-|
w: |* * de-|rer,|||||
 f4 d4 | ed d4 c2 | d2 F2 B3 c | d2 d2 cBAG |[M:2/4] A2 A2 |[M:3/4] A4 d2 |"^b" B2 e4 | d4 d2 | %23
w: * rer,|à _ quel- *|que fin, pour _|_ un con- * * *|ten- te-|ment: mais|d'a- my-|tié l'on|
w: ||||||||
 f4 g2 | f4 d2 |[M:2/2] d8 |"^b" z2 B4 e2- | e2 c4 d2- | d2 d2 e2 c2 | d2 d2 B4 | z2 d2 B2 e2- | %31
w: en peult|re- ti-|rer,|plai- sir,|_ hon- neur,|_ prouf- fit, ad-|van- ce- ment,|mais d'a- my-|
w: ||||||||
 e2 d4 d2 | f4 g2 f2- | f2 d2 d4- | d4 z2 B2- |"^b" B2 e4 c2- | c2 d4 d2 | e2 c2 d2 d2 | d8 |] %39
w: * tié l'on|peult re- ti-|* * rer,|_ plai-|* sir, pruof-|* fit, hon-|neur, ad- van- ce-|ment.|
w: ||||||||
V:3
 z4 G4- | G4 B4 | B4 A2 A2 | d6 B2 | c2 B2 G4 | A4 z2 A2 | B2 B2 G2 G2 | BABc d2 B2 | %8
w: A-|* mour|se doibt fi-|gu- rer|u- ne ro-|se, dont|pour un temps l'o-|deur _ _ _ _ on|
w: Mais|_ a-|my- tié est|trop plus|gran- de cho-|se, qui|bien au vray la|veult _ _ _ _ con|
 c2 FG AB c2- | cBAG A4 |[M:2/4] G4 :|[M:2/2] z2 F4 B2- | B2 A2 B4 | A4 z2 d2 | c2 A2 B4 | %15
w: peult ti- * * * *||rer,|car a-|* * mour|n'est qu'un|de- sir d'as-|
w: si- de- * * * *||rer,|||||
 c4 B2 B2 | BAGF G2 G2 | A4 z2 F2 | B3 A GFED |[M:2/4] E4 |[M:3/4] D4 A2 | G2 c4 | A4 B2 | c4 G2 | %24
w: pi- rer, à|quel _ _ _ _ que|fin, pour|un con- ten- * * *|te-|ment: mais|d'a- my-|tié l'on|en peult|
w: |||||||||
 c4 B2 |[M:2/2] A2 F4 B2- | B2 G4 c2- | cBAG F2 A2 | B2 B2 cBAG | A2 A2 G4 | z2 A2 G2 c2- | %31
w: re- ti-|rer, plai- sir,|_ prouf- fit,|_ _ _ _ _ hon-|neur, ad- van- * * *|* ce- ment,|mais d'a- my-|
w: |||||||
 c2 A4 B2 | c4 G2 c2- | c2 B2 A2 F2- | F2 B4 G2- | G2 c3 B AG | F2 A2 B2 B2 | cBAG A2 A2 | G8 |] %39
w: * tié l'on|peult re- ti-|* * * rer,|_ plai- sir,|_ prouf- * * *|fit, hon- neur, ad-|van- * * * * ce-|ment.|
w: ||||||||
V:4
 G,,8 | C,4 B,,2 G,,2- | G,,A,,B,,C, D,4 | z2 D,2 G,2 G,2 |"^b" E,2 F,2 E,4 | D,4 z2 D,2 | %6
w: A-|mour se doibt,|_ _ _ _ _|fi- gu- rer|u- ne ro-|se, dont|
w: Mais|a- my- tié,|_ _ _ _ _|est trop plus|gran- de cho-|se, qui|
 B,,2 B,,2 C,3 B,,/A,,/ | G,,2 G,2 G,2 G,2 | F,6 C,2- | C,D, E,2 D,4 |[M:2/4] G,,4 :| %11
w: pour un temps _ _|_ l'o- deur on|peult ti-||rer,|
w: bien au vray _ _|_ la veult con-|si- *|* * * de-|rer,|
[M:2/2] z2 B,,2 D,4 | C,4 B,,2 B,,2 | D,C,D,E, F,2 B,,2 | F,4 G,4 | F,4 z2 G,2 | G,F,E,D, E,2 E,2 | %17
w: car a-|mour n'est qu'un|de- * * * * sir|d'as- pi-|rer, à|quel- * * * * que|
w: ||||||
 D,4 B,,4 | B,,2 B,,2 C,2 D,2 |[M:2/4] A,,4 |[M:3/4] D,4 D,2 | E,2 C,4 | D,4 B,,2 | F,4 _E,2 | %24
w: fin, pour|un con- ten- *|te-|ment: mais|d'a- my-|tié l'on|en peult|
w: |||||||
 F,4 G,2 |[M:2/2] D,4 z2 B,,2- |"^b" B,,2 E,4 C,2- | C,2 F,3 E, D,C, | B,,2 G,,2 C,2 E,2 | %29
w: re- ti-|rer, plai-|* sir, prouf-|* fit, _ _ _|_ hon- neur, ad-|
w: |||||
 D,2 D,2 G,,4 |"^b" z2 D,2 E,2 C,2- | C,2 D,4 B,,2 |"^#" F,4 _E,2 F,2- | F,2 G,2 D,4 | %34
w: van- ce- ment,|mais d'a- my-|* tié l'on|peult re- ti-|* * rer,|
w: |||||
"^b" z2 B,,4 E,2- | E,2 C,4 F,2- | F,E,D,C, B,,2 G,,2 | C,2 E,2 D,2 D,2 | G,,8 |] %39
w: plai- sir,|_ prouf- fit,|_ _ _ _ _ ad-|van- * * ce-|ment.|
w: |||||

